material/.icons/material/home-minus-outline.svg

<svg xmlns="http://www.w3.org/2000/svg" viewBox="0 0 24 24"><path d="M12 2L2 12h2v9h16v-9h2M12 5l6 6v8H6v-8m10 2v2H8v-2h8z"/></svg>

<?xml version="1.0" encoding="UTF-8"?><!DOCTYPE svg PUBLIC "-//W3C//DTD SVG 1.1//EN" "http://www.w3.org/Graphics/SVG/1.1/DTD/svg11.dtd"><svg xmlns="http://www.w3.org/2000/svg" xmlns:xlink="http://www.w3.org/1999/xlink" version="1.1" id="mdi-home-minus-outline" width="24" height="24" viewBox="0 0 24 24"><path d="M12 2L2 12H4V21H20V12H22M12 5L18 11V19H6V11M16 13V15H8V13H16Z" /></svg>
